Newaita-dark/actions/24/format-text-larger.svg

<svg height="24" viewBox="0 0 24 24" width="24" xmlns="http://www.w3.org/2000/svg"><path d="m11.90625 4.40625c-2.210938 0-4.132812.894531-5.160156 2.230469l1.648437 1.03125c.628907-.765625 1.835938-1.277344 3.226563-1.277344h.574218c2.039063 0 3.679688 1.105469 3.679688 2.480469v2.976562c-1.050781-.707031-2.441406-1.132812-3.96875-1.132812-3.296875 0-5.953125 1.992187-5.953125 4.464844v.496093h.035156c.328125 2.238281 2.84375 3.96875 5.917969 3.96875 1.527344 0 2.917969-.425781 3.96875-1.128906v1.019531h1.984375v-10.664062c0-2.476563-2.652344-4.464844-5.953125-4.464844zm-.285156 8.292969h.574218c2.039063 0 3.679688 1.105469 3.679688 2.480469s-1.640625 2.480468-3.679688 2.480468h-.574218c-2.039063 0-3.683594-1.105468-3.683594-2.480468s1.644531-2.480469 3.683594-2.480469zm0 0" fill="#e0e0e0"/></svg>

<svg xmlns="http://www.w3.org/2000/svg" xmlns:xlink="http://www.w3.org/1999/xlink" width="24px" height="24px" viewBox="0 0 24 24" version="1.1">
<g id="surface1">
     <defs>
  <style id="current-color-scheme" type="text/css">
   .ColorScheme-Text { color:#eeeeee; } .ColorScheme-Highlight { color:#424242; }
  </style>
 </defs>
<path style="fill:currentColor" class="ColorScheme-Text" d="M 11.90625 4.40625 C 9.695312 4.40625 7.773438 5.300781 6.746094 6.636719 L 8.394531 7.667969 C 9.023438 6.902344 10.230469 6.390625 11.621094 6.390625 L 12.195312 6.390625 C 14.234375 6.390625 15.875 7.496094 15.875 8.871094 L 15.875 11.847656 C 14.824219 11.140625 13.433594 10.714844 11.90625 10.714844 C 8.609375 10.714844 5.953125 12.707031 5.953125 15.179688 L 5.953125 15.675781 L 5.988281 15.675781 C 6.316406 17.914062 8.832031 19.644531 11.90625 19.644531 C 13.433594 19.644531 14.824219 19.21875 15.875 18.515625 L 15.875 19.535156 L 17.859375 19.535156 L 17.859375 8.871094 C 17.859375 6.394531 15.207031 4.40625 11.90625 4.40625 Z M 11.621094 12.699219 L 12.195312 12.699219 C 14.234375 12.699219 15.875 13.804688 15.875 15.179688 C 15.875 16.554688 14.234375 17.660156 12.195312 17.660156 L 11.621094 17.660156 C 9.582031 17.660156 7.9375 16.554688 7.9375 15.179688 C 7.9375 13.804688 9.582031 12.699219 11.621094 12.699219 Z M 11.621094 12.699219 "/>
</g>
</svg>
